calogercom/src/img/github.svg

<?xml version="1.0" encoding="UTF-8" standalone="no"?><!DOCTYPE svg PUBLIC "-//W3C//DTD SVG 1.1//EN" "http://www.w3.org/Graphics/SVG/1.1/DTD/svg11.dtd"><svg width="100%" height="100%" viewBox="0 0 136 133" version="1.1" xmlns="http://www.w3.org/2000/svg" xmlnsxlink="http://www.w3.org/1999/xlink" xmlspace="preserve" xmlnsserif="http://www.serif.com/" style="fill-rule:evenodd;clip-rule:evenodd;stroke-linejoin:round;stroke-miterlimit:2;"><path d="M67.867,0c-37.48,0 -67.867,30.387 -67.867,67.875c0,29.987 19.446,55.425 46.417,64.404c3.396,0.621 4.633,-1.475 4.633,-3.275c0,-1.608 -0.058,-5.879 -0.092,-11.541c-18.879,4.1 -22.862,-9.1 -22.862,-9.1c-3.088,-7.838 -7.538,-9.926 -7.538,-9.926c-6.162,-4.212 0.467,-4.129 0.467,-4.129c6.813,0.484 10.396,6.996 10.396,6.996c6.054,10.371 15.887,7.375 19.754,5.642c0.617,-4.388 2.367,-7.379 4.308,-9.075c-15.07,-1.713 -30.916,-7.538 -30.916,-33.546c-0,-7.408 2.646,-13.467 6.987,-18.212c-0.7,-1.717 -3.029,-8.617 0.663,-17.963c-0,0 5.7,-1.825 18.666,6.958c5.413,-1.504 11.221,-2.258 16.992,-2.283c5.763,0.025 11.571,0.779 16.992,2.283c12.958,-8.783 18.646,-6.958 18.646,-6.958c3.704,9.346 1.375,16.246 0.674,17.963c4.35,4.745 6.98,10.804 6.98,18.212c-0,26.075 -15.871,31.813 -30.992,33.492c2.438,2.096 4.608,6.237 4.608,12.571c0,9.07 -0.083,16.391 -0.083,18.616c0,1.817 1.221,3.929 4.667,3.267c26.95,-8.996 46.379,-34.417 46.379,-64.396c-0,-37.487 -30.392,-67.875 -67.879,-67.875" style="fill:#181717;"/></svg>

<?xml version="1.0" encoding="UTF-8" standalone="no"?>
<!DOCTYPE svg PUBLIC "-//W3C//DTD SVG 1.1//EN" "http://www.w3.org/Graphics/SVG/1.1/DTD/svg11.dtd">
<svg width="100%" height="100%" viewBox="0 0 100 100" version="1.1" xmlns="http://www.w3.org/2000/svg" xmlns:xlink="http://www.w3.org/1999/xlink" xml:space="preserve" xmlns:serif="http://www.serif.com/" style="fill-rule:evenodd;clip-rule:evenodd;stroke-linejoin:round;stroke-miterlimit:2;">
    <g transform="matrix(0.73667,0,0,0.755314,0,-1.04316e-14)">
        <path d="M67.867,0C30.387,0 0,30.387 0,67.875C0,97.862 19.446,123.3 46.417,132.279C49.813,132.9 51.05,130.804 51.05,129.004C51.05,127.396 50.992,123.125 50.958,117.463C32.079,121.563 28.096,108.363 28.096,108.363C25.008,100.525 20.558,98.437 20.558,98.437C14.396,94.225 21.025,94.308 21.025,94.308C27.838,94.792 31.421,101.304 31.421,101.304C37.475,111.675 47.308,108.679 51.175,106.946C51.792,102.558 53.542,99.567 55.483,97.871C40.413,96.158 24.567,90.333 24.567,64.325C24.567,56.917 27.213,50.858 31.554,46.113C30.854,44.396 28.525,37.496 32.217,28.15C32.217,28.15 37.917,26.325 50.883,35.108C56.296,33.604 62.104,32.85 67.875,32.825C73.638,32.85 79.446,33.604 84.867,35.108C97.825,26.325 103.513,28.15 103.513,28.15C107.217,37.496 104.888,44.396 104.187,46.113C108.537,50.858 111.167,56.917 111.167,64.325C111.167,90.4 95.296,96.138 80.175,97.817C82.613,99.913 84.783,104.054 84.783,110.388C84.783,119.458 84.7,126.779 84.7,129.004C84.7,130.821 85.921,132.933 89.367,132.271C116.317,123.275 135.746,97.854 135.746,67.875C135.746,30.388 105.354,-0 67.867,-0" style="fill:rgb(38,166,154);"/>
    </g>
</svg>
